X:161
T:The Leeds Polka
M:4/4
L:1/8
Q:150
S:Ashton and Dyson,
B:A First Collection of Yorkshire Dance Music
K:D
d2g2 gefe|d2g2 B4|A2f2 f4|B2g2 g4|d2g2 gefe|d2g2 B4|A2f2a2f2|g4 g4|
P:B
Adf2 f2a2|a2g2 gfe2|Ace2 e2g2|g2f2 fed2|Adf2 f2a2|a2g2 gfe2|Ace2 Ace2|d4 d4 
P:C
DGB2 B2B2|DGB2 B2B2|=cBA2 =cBA2|G2B2e2d2|DGB2 B2B2|DGB2 B2B2|=cBA2 =cBA2|G4 g4

